cc-by-sa/knowledge/modules/using_type/lessons/typesetting_on_a_curved_path/images/curved_4.svg

<svg xmlns="http://www.w3.org/2000/svg" width="1920" height="1080" fill="none"><path fill="#3C4043" d="M227.157 515.713 84 478.406l5.617-21.508 61.189 15.937 4.978-19.088-61.19-15.937 5.617-21.507 143.156 37.307-5.616 21.508-66.396-17.307-4.977 19.088 66.395 17.306-5.616 21.508ZM265.654 416.258c-9.269 14.795-19.133 20.457-29.681 16.987-10.548-3.471-27.855-12.741-51.966-27.81-24.019-15.023-39.956-26.531-47.81-34.476-7.808-7.946-7.078-19.362 2.192-34.248 9.224-14.75 19.133-20.366 29.773-16.804 10.64 3.561 27.946 12.786 51.92 27.809 24.11 15.069 40.001 26.576 47.764 34.522 7.763 7.945 6.987 19.27-2.192 34.02Zm-13.744-8.585c2.328-3.699 1.598-7.809-2.147-12.284-3.744-4.475-17.535-14.11-41.325-28.996-23.974-14.978-38.769-23.198-44.34-24.568-5.571-1.37-9.544-.228-11.873 3.471-2.374 3.79-1.689 7.9 2.009 12.283 3.699 4.43 17.535 14.111 41.509 29.134 23.791 14.886 38.495 23.015 44.157 24.43 5.662 1.416 9.681.229 12.01-3.516v.046ZM313.97 360c-8.722 7.443-16.53 11.188-23.517 11.188-6.987 0-14.064-4.201-21.279-12.649l-77.264-90.141 16.896-14.475 75.254 87.811c4.338 5.069 7.946 7.946 10.777 8.631 2.877.73 5.753-.183 8.63-2.649 2.831-2.42 4.11-5.114 3.79-8.037-.274-2.922-2.602-6.895-6.941-11.963l-75.254-87.812 16.896-14.476 77.218 90.141c7.215 8.448 10.32 16.074 9.269 22.969-1.05 6.849-5.89 14.019-14.566 21.416l.091.046ZM376.518 320.775c-16.028 6.895-26.942 6.438-32.695-1.279-5.754-7.763-12.375-20.32-19.818-37.718l20.457-8.768c7.398 17.261 12.603 27.49 15.617 30.686 3.014 3.197 6.393 4.019 10.137 2.375 3.836-1.644 5.663-4.567 5.48-8.722-.183-4.201-1.552-9.361-4.201-15.526-3.562-8.265-7.078-13.608-10.548-16.119-3.471-2.512-8.813-3.745-16.028-3.836-12.649 0-21.462-1.872-26.531-5.662-5.069-3.79-9.909-11.188-14.613-22.102-3.516-8.173-6.073-17.078-7.717-26.622-1.644-9.543 5.526-17.763 21.417-24.567 15.891-6.804 26.85-6.119 32.786 2.101 5.937 8.219 12.375 20.366 19.271 36.394l-20.367 8.722c-7.078-16.439-12.146-26.348-15.297-29.682-3.151-3.333-6.576-4.201-10.274-2.648-3.699 1.598-5.434 4.566-5.206 8.995.228 4.43 1.507 9.362 3.881 14.841 3.562 8.311 7.124 13.699 10.594 16.074 3.471 2.374 9.042 3.653 16.622 3.699 12.421 0 21.051 1.735 25.983 5.205 4.886 3.471 9.818 10.914 14.749 22.421 3.699 8.585 6.393 17.627 8.083 27.125 1.689 9.498-5.571 17.717-21.736 24.658l-.046-.045ZM416.432 305.111l-19.498-146.672 48.54-6.439 2.101 15.982-26.622 3.517 6.393 48.038 25.435-3.379 2.1 15.663-25.435 3.379 6.804 51.052 26.622-3.516 2.101 15.982-48.541 6.439v-.046ZM508.675 299.998l39.088-142.7 38.677 10.594c11.964 3.288 17.17 10.548 15.617 21.736-1.552 11.188-4.064 23.197-7.58 35.937-3.516 12.832-7.443 24.431-11.827 34.842-4.384 10.411-12.557 13.973-24.521 10.685l-17.216-4.703-10.822 39.545-21.462-5.891.046-.045Zm36.531-49.18 9.726 2.648c3.745 1.005 6.895-1.37 9.453-7.169 2.557-5.799 5.479-14.658 8.767-26.577 3.242-11.781 5.206-20.822 5.982-27.215.776-6.393-.731-10.092-4.475-11.097l-9.726-2.648-19.727 72.103v-.045ZM578.315 321.504l74.798-127.631 19.179 11.233-66.761 113.932 21.645 12.695-8.037 13.699-40.869-23.928h.045ZM626.169 348.994l118.406-90.598 24.431 25.161-93.794 115.895-15.754-16.165 26.622-30.914-12.466-12.832-31.737 25.664-15.754-16.211h.046Zm59.865-19.818 10.777 11.096 49.408-58.13-.776-.777-59.454 47.811h.045ZM679.594 404.157l133.75-63.245 15.069 31.919-110.78 76.761-.229-.502 120.416-56.349 9.407 19.909-133.75 63.245-15.206-32.193 111.101-77.035.137.274-120.599 57.034-9.361-19.818h.045ZM716.945 502.743l130.736-17.032-2.42-18.586 15.982-2.1 7.718 59.135-15.983 2.1-2.42-18.585-130.736 17.033-2.877-21.965ZM203.914 840.566l90.643-116.946 17.581 13.608-38.723 50.002 15.571 12.101 38.723-50.002 17.581 13.608-90.643 116.945-17.581-13.608 42.011-54.248-15.571-12.101-42.011 54.248-17.581-13.607ZM293.782 902.03l58.267-135.987 45.025 19.27-6.347 14.795-24.705-10.594-19.087 44.523 23.562 10.091-6.21 14.521-23.562-10.091-20.275 47.353 24.658 10.594-6.347 14.795-45.025-19.27h.046ZM378.988 934.225l39.089-143.888 34.704 5.16-4.155 149.048-22.33-3.334 2.375-40.732-17.672-2.603-9.635 39.682-22.33-3.333h-.046Zm35.527-52.103 15.297 2.283 3.973-76.167-1.096-.183-18.174 74.067ZM495.981 943.445l-32.467-145.394 22.558-2.328 25.663 130.872h.456l-1.598-133.43 22.467-2.329-2.009 148.956-35.116 3.653h.046ZM589.819 926.917l-52.423-138.362 45.801-17.352 5.708 15.069-25.115 9.498 17.17 45.298 23.973-9.087 5.572 14.75-23.974 9.087 18.266 48.175 25.115-9.498 5.708 15.069-45.801 17.353ZM677.399 889.245l-88.633-118.498 28.266-21.142 97.264 93.246-.457.319-79.181-106.762 17.626-13.197 88.588 118.498-28.54 21.325-97.629-93.565.274-.183 79.866 106.808-17.535 13.151h.091Z"/><circle cx="472.293" cy="546.644" r="231.293" fill="#D2E3FC"/><path fill="#3C4043" d="m1294.89 350.418-76.3-126.764 34.38-20.685c10.64-6.393 19.5-5.16 26.53 3.653 7.04 8.859 13.98 18.95 20.78 30.275 6.85 11.416 12.56 22.238 17.08 32.604 4.52 10.32 1.46 18.677-9.18 25.115l-15.3 9.224 21.15 35.116-19.05 11.462h-.09Zm-10.36-60.414 8.63-5.205c3.33-2.01 3.74-5.937 1.32-11.827-2.42-5.891-6.8-14.111-13.2-24.659-6.3-10.457-11.5-18.174-15.57-23.106-4.11-4.932-7.81-6.439-11.09-4.429l-8.63 5.205 38.54 64.021ZM1358.59 314.799l-40.73-142.244 21.37-6.118 36.35 126.945 24.11-6.895 4.38 15.298-45.52 13.059.04-.045ZM1411.43 301.193l7.81-148.91 34.97-2.283 27.4 146.581-22.51 1.462-6.26-40.322-17.8 1.188-1.05 40.823-22.52 1.461h-.04Zm23.74-58.449 15.44-1.005-12.19-75.3h-1.1l-2.15 76.305ZM1488.42 298.635l46.66-140.416 33.48 11.142-21.01 133.11-.5-.182 42.42-125.987 20.91 6.941-46.62 140.416-33.79-11.233 21.05-133.567.32.091-42.06 126.581-20.77-6.896h-.09ZM1585.54 339.733l77.81-106.443-15.11-11.051 9.5-13.014 48.13 35.207-9.5 13.014-15.12-11.05-77.81 106.442-17.85-13.06-.05-.045ZM1179 839.796l90.64-116.945 17.58 13.607-38.72 50.003 15.57 12.1 38.73-50.002 17.58 13.608-90.65 116.946-17.58-13.608 42.01-54.249-15.57-12.101-42.01 54.249-17.58-13.608ZM1268.87 901.261l58.27-135.988 45.02 19.271-6.35 14.795-24.7-10.594-19.09 44.522 23.56 10.092-6.21 14.521-23.56-10.092-20.27 47.354 24.65 10.594-6.34 14.795-45.03-19.27h.05ZM1354.12 933.41l39.09-143.887 34.7 5.16-4.15 149.047-22.33-3.333 2.37-40.733-17.67-2.602-9.64 39.682-22.33-3.334h-.04Zm35.53-52.103 15.29 2.284 3.98-76.168-1.1-.182-18.17 74.066ZM1471.07 942.631l-32.47-145.394 22.56-2.329 25.66 130.873h.46l-1.6-133.43 22.47-2.329-2.01 148.956-35.12 3.653h.05ZM1564.9 926.146l-52.42-138.362 45.8-17.352 5.71 15.069-25.11 9.498 17.17 45.299 23.97-9.087 5.57 14.749-23.97 9.087 18.26 48.176 25.12-9.498 5.71 15.069-45.81 17.352ZM1652.49 888.431l-88.64-118.498 28.27-21.143 97.26 93.246-.45.32-79.19-106.763 17.63-13.197 88.59 118.499-28.54 21.325-97.63-93.566.27-.183 79.87 106.808-17.54 13.152h.1Z"/><circle cx="1447.29" cy="546.644" r="231.293" fill="#D2E3FC"/></svg>

<svg width="1920" height="1080" viewBox="0 0 1920 1080" fill="none" xmlns="http://www.w3.org/2000/svg">
<path d="M227.157 515.713L84 478.406L89.6167 456.898L150.806 472.835L155.784 453.747L94.594 437.81L100.211 416.303L243.367 453.61L237.751 475.118L171.355 457.811L166.378 476.899L232.773 494.205L227.157 515.713Z" fill="#3C4043"/>
<path d="M265.654 416.258C256.385 431.053 246.521 436.715 235.973 433.245C225.425 429.774 208.118 420.504 184.007 405.435C159.988 390.412 144.051 378.904 136.197 370.959C128.389 363.013 129.119 351.597 138.389 336.711C147.613 321.961 157.522 316.345 168.162 319.907C178.802 323.468 196.108 332.693 220.082 347.716C244.192 362.785 260.083 374.292 267.846 382.238C275.609 390.183 274.833 401.508 265.654 416.258ZM251.91 407.673C254.238 403.974 253.508 399.864 249.763 395.389C246.019 390.914 232.228 381.279 208.438 366.393C184.464 351.415 169.669 343.195 164.098 341.825C158.527 340.455 154.554 341.597 152.225 345.296C149.851 349.086 150.536 353.196 154.234 357.579C157.933 362.009 171.769 371.69 195.743 386.713C219.534 401.599 234.238 409.728 239.9 411.143C245.562 412.559 249.581 411.372 251.91 407.627V407.673Z" fill="#3C4043"/>
<path d="M313.97 360C305.248 367.443 297.44 371.188 290.453 371.188C283.466 371.188 276.389 366.987 269.174 358.539L191.91 268.398L208.806 253.923L284.06 341.734C288.398 346.803 292.006 349.68 294.837 350.365C297.714 351.095 300.59 350.182 303.467 347.716C306.298 345.296 307.577 342.602 307.257 339.679C306.983 336.757 304.655 332.784 300.316 327.716L225.062 239.904L241.958 225.428L319.176 315.569C326.391 324.017 329.496 331.643 328.445 338.538C327.395 345.387 322.555 352.557 313.879 359.954L313.97 360Z" fill="#3C4043"/>
<path d="M376.518 320.775C360.49 327.67 349.576 327.213 343.823 319.496C338.069 311.733 331.448 299.176 324.005 281.778L344.462 273.01C351.86 290.271 357.065 300.5 360.079 303.696C363.093 306.893 366.472 307.715 370.216 306.071C374.052 304.427 375.879 301.504 375.696 297.349C375.513 293.148 374.144 287.988 371.495 281.823C367.933 273.558 364.417 268.215 360.947 265.704C357.476 263.192 352.134 261.959 344.919 261.868C332.27 261.868 323.457 259.996 318.388 256.206C313.319 252.416 308.479 245.018 303.775 234.104C300.259 225.931 297.702 217.026 296.058 207.482C294.414 197.939 301.584 189.719 317.475 182.915C333.366 176.111 344.325 176.796 350.261 185.016C356.198 193.235 362.636 205.382 369.532 221.41L349.165 230.132C342.087 213.693 337.019 203.784 333.868 200.45C330.717 197.117 327.292 196.249 323.594 197.802C319.895 199.4 318.16 202.368 318.388 206.797C318.616 211.227 319.895 216.159 322.269 221.638C325.831 229.949 329.393 235.337 332.863 237.712C336.334 240.086 341.905 241.365 349.485 241.411C361.906 241.411 370.536 243.146 375.468 246.616C380.354 250.087 385.286 257.53 390.217 269.037C393.916 277.622 396.61 286.664 398.3 296.162C399.989 305.66 392.729 313.879 376.564 320.82L376.518 320.775Z" fill="#3C4043"/>
<path d="M416.432 305.111L396.934 158.439L445.474 152L447.575 167.982L420.953 171.499L427.346 219.537L452.781 216.158L454.881 231.821L429.446 235.2L436.25 286.252L462.872 282.736L464.973 298.718L416.432 305.157V305.111Z" fill="#3C4043"/>
<path d="M508.675 299.998L547.763 157.298L586.44 167.892C598.404 171.18 603.61 178.44 602.057 189.628C600.505 200.816 597.993 212.825 594.477 225.565C590.961 238.397 587.034 249.996 582.65 260.407C578.266 270.818 570.093 274.38 558.129 271.092L540.913 266.389L530.091 305.934L508.629 300.043L508.675 299.998ZM545.206 250.818L554.932 253.466C558.677 254.471 561.827 252.096 564.385 246.297C566.942 240.498 569.864 231.639 573.152 219.72C576.394 207.939 578.358 198.898 579.134 192.505C579.91 186.112 578.403 182.413 574.659 181.408L564.933 178.76L545.206 250.863V250.818Z" fill="#3C4043"/>
<path d="M578.315 321.504L653.113 193.873L672.292 205.106L605.531 319.038L627.176 331.733L619.139 345.432L578.27 321.504H578.315Z" fill="#3C4043"/>
<path d="M626.169 348.994L744.575 258.396L769.006 283.557L675.212 399.452L659.458 383.287L686.08 352.373L673.614 339.541L641.877 365.205L626.123 348.994H626.169ZM686.034 329.176L696.811 340.272L746.219 282.142L745.443 281.365L685.989 329.176H686.034Z" fill="#3C4043"/>
<path d="M679.594 404.157L813.344 340.912L828.413 372.831L717.633 449.592L717.404 449.09L837.82 392.741L847.227 412.65L713.477 475.895L698.271 443.702L809.372 366.667L809.509 366.941L688.91 423.975L679.549 404.157H679.594Z" fill="#3C4043"/>
<path d="M716.945 502.743L847.681 485.711L845.261 467.125L861.243 465.025L868.961 524.16L852.978 526.26L850.558 507.675L719.822 524.708L716.945 502.743Z" fill="#3C4043"/>
<path d="M203.914 840.566L294.557 723.62L312.138 737.228L273.415 787.23L288.986 799.331L327.709 749.329L345.29 762.937L254.647 879.882L237.066 866.274L279.077 812.026L263.506 799.925L221.495 854.173L203.914 840.566Z" fill="#3C4043"/>
<path d="M293.782 902.03L352.049 766.043L397.074 785.313L390.727 800.108L366.022 789.514L346.935 834.037L370.497 844.128L364.287 858.649L340.725 848.558L320.45 895.911L345.108 906.505L338.761 921.3L293.736 902.03H293.782Z" fill="#3C4043"/>
<path d="M378.988 934.225L418.077 790.337L452.781 795.497L448.626 944.545L426.296 941.211L428.671 900.479L410.999 897.876L401.364 937.558L379.034 934.225H378.988ZM414.515 882.122L429.812 884.405L433.785 808.238L432.689 808.055L414.515 882.122Z" fill="#3C4043"/>
<path d="M495.981 943.445L463.514 798.051L486.072 795.723L511.735 926.595H512.191L510.593 793.165L533.06 790.836L531.051 939.792L495.935 943.445H495.981Z" fill="#3C4043"/>
<path d="M589.819 926.917L537.396 788.555L583.197 771.203L588.905 786.272L563.79 795.77L580.96 841.068L604.933 831.981L610.505 846.731L586.531 855.818L604.797 903.993L629.912 894.495L635.62 909.564L589.819 926.917Z" fill="#3C4043"/>
<path d="M677.399 889.245L588.766 770.747L617.032 749.605L714.296 842.851L713.839 843.17L634.658 736.408L652.284 723.211L740.872 841.709L712.332 863.034L614.703 769.469L614.977 769.286L694.843 876.094L677.308 889.245H677.399Z" fill="#3C4043"/>
<circle cx="472.293" cy="546.644" r="231.293" fill="#D2E3FC"/>
<path d="M1294.89 350.418L1218.59 223.654L1252.97 202.969C1263.61 196.576 1272.47 197.809 1279.5 206.622C1286.54 215.481 1293.48 225.572 1300.28 236.897C1307.13 248.313 1312.84 259.135 1317.36 269.501C1321.88 279.821 1318.82 288.178 1308.18 294.616L1292.88 303.84L1314.03 338.956L1294.98 350.418H1294.89ZM1284.53 290.004L1293.16 284.799C1296.49 282.789 1296.9 278.862 1294.48 272.972C1292.06 267.081 1287.68 258.861 1281.28 248.313C1274.98 237.856 1269.78 230.139 1265.71 225.207C1261.6 220.275 1257.9 218.768 1254.62 220.778L1245.99 225.983L1284.53 290.004Z" fill="#3C4043"/>
<path d="M1358.59 314.799L1317.86 172.555L1339.23 166.437L1375.58 293.382L1399.69 286.487L1404.07 301.785L1358.55 314.844L1358.59 314.799Z" fill="#3C4043"/>
<path d="M1411.43 301.193L1419.24 152.283L1454.21 150L1481.61 296.581L1459.1 298.043L1452.84 257.721L1435.04 258.909L1433.99 299.732L1411.47 301.193H1411.43ZM1435.17 242.744L1450.61 241.739L1438.42 166.439H1437.32L1435.17 242.744Z" fill="#3C4043"/>
<path d="M1488.42 298.635L1535.08 158.219L1568.56 169.361L1547.55 302.471L1547.05 302.289L1589.47 176.302L1610.38 183.243L1563.76 323.659L1529.97 312.426L1551.02 178.859L1551.34 178.95L1509.28 305.531L1488.51 298.635H1488.42Z" fill="#3C4043"/>
<path d="M1585.54 339.733L1663.35 233.29L1648.24 222.239L1657.74 209.225L1705.87 244.432L1696.37 257.446L1681.25 246.396L1603.44 352.838L1585.59 339.778L1585.54 339.733Z" fill="#3C4043"/>
<path d="M1179 839.796L1269.64 722.851L1287.22 736.458L1248.5 786.461L1264.07 798.561L1302.8 748.559L1320.38 762.167L1229.73 879.113L1212.15 865.505L1254.16 811.256L1238.59 799.155L1196.58 853.404L1179 839.796Z" fill="#3C4043"/>
<path d="M1268.87 901.261L1327.14 765.273L1372.16 784.544L1365.81 799.339L1341.11 788.745L1322.02 833.267L1345.58 843.359L1339.37 857.88L1315.81 847.788L1295.54 895.142L1320.19 905.736L1313.85 920.531L1268.82 901.261H1268.87Z" fill="#3C4043"/>
<path d="M1354.12 933.41L1393.21 789.523L1427.91 794.683L1423.76 943.73L1401.43 940.397L1403.8 899.664L1386.13 897.062L1376.49 936.744L1354.16 933.41H1354.12ZM1389.65 881.307L1404.94 883.591L1408.92 807.423L1407.82 807.241L1389.65 881.307Z" fill="#3C4043"/>
<path d="M1471.07 942.631L1438.6 797.237L1461.16 794.908L1486.82 925.781H1487.28L1485.68 792.351L1508.15 790.022L1506.14 938.978L1471.02 942.631H1471.07Z" fill="#3C4043"/>
<path d="M1564.9 926.146L1512.48 787.784L1558.28 770.432L1563.99 785.501L1538.88 794.999L1556.05 840.298L1580.02 831.211L1585.59 845.96L1561.62 855.047L1579.88 903.223L1605 893.725L1610.71 908.794L1564.9 926.146Z" fill="#3C4043"/>
<path d="M1652.49 888.431L1563.85 769.933L1592.12 748.79L1689.38 842.036L1688.93 842.356L1609.74 735.593L1627.37 722.396L1715.96 840.895L1687.42 862.22L1589.79 768.654L1590.06 768.471L1669.93 875.279L1652.39 888.431H1652.49Z" fill="#3C4043"/>
<circle cx="1447.29" cy="546.644" r="231.293" fill="#D2E3FC"/>
</svg>
